X: 21612
T: Killavil Fancy, The
R: reel
M: 4/4
K: Gmajor
DGBG AGBA|GEED cABG|DGBG ~A3B|GEED EFGA|
~B2dB ~A2BA|GE~E2 c2BG|DGBG A2BA|GEED E~E2D|
GABd edge|dB~B2 dBAB|GABd ~e2ge|dBAG E~G3|
GA (3B/c/d/ egge|dB~B2 dega|(3b/a/g/ ag egdg|gedB AGEG|

